static/assets/img/icons/theme/navigation/down-right.svg

<svg height="24" viewBox="0 0 24 24" width="24" xmlns="http://www.w3.org/2000/svg"><g fill="none" fill-rule="evenodd"><path d="m0 0h24v24h-24z" opacity="0"/><g fill="#000"><rect height="14" opacity=".3" rx="1" transform="matrix(-.70710678 .70710678 -.70710678 -.70710678 28.470564 12.5)" width="2" x="10.646447" y="5.146447"/><path d="m15.5961941 8.6109127c0-.55228475.4477152-1 1-1 .5522847 0 1 .44771525 1 1v8.4852814c0 .5353914-.4216767.9758002-.9565628.9990561l-8.13172798.3535534c-.55176348.0239897-1.01850367-.4038554-1.04249338-.9556189-.02398972-.5517635.40385545-1.0185037.95561893-1.0424934l7.17516523-.3119637z" fill-rule="nonzero"/></g></g></svg>

<svg width="24px" height="24px" viewBox="0 0 24 24" version="1.1" xmlns="http://www.w3.org/2000/svg" xmlns:xlink="http://www.w3.org/1999/xlink">
    <title>Icon For Down-right</title>
    <g stroke="none" stroke-width="1" fill="none" fill-rule="evenodd">
        <polygon points="0 0 24 0 24 24 0 24" opacity="0"></polygon>
        <rect fill="#000000" opacity="0.3" transform="translate(11.646447, 12.146447) rotate(-225.000000) translate(-11.646447, -12.146447) " x="10.6464466" y="5.14644661" width="2" height="14" rx="1"></rect>
        <path d="M15.5961941,8.6109127 C15.5961941,8.05862795 16.0439093,7.6109127 16.5961941,7.6109127 C17.1484788,7.6109127 17.5961941,8.05862795 17.5961941,8.6109127 L17.5961941,17.0961941 C17.5961941,17.6315855 17.1745174,18.0719943 16.6396313,18.0952502 L8.50790332,18.4488036 C7.95613984,18.4727933 7.48939965,18.0449482 7.46540994,17.4931847 C7.44142022,16.9414212 7.86926539,16.474681 8.42102887,16.4506913 L15.5961941,16.1387276 L15.5961941,8.6109127 Z" fill="#000000" fill-rule="nonzero"></path>
    </g>
</svg>
